static/images/product-designer.svg

<svg width="807" height="50" viewBox="0 0 807 50" fill="none" xmlns="http://www.w3.org/2000/svg">
<path d="M42.48 10.15C41.6118 8.24883 40.3185 6.57242 38.7 5.25002C37.032 3.92648 35.1236 2.9383 33.08 2.34002C30.8488 1.668 28.5302 1.33099 26.2 1.34002H0.5V48H8.78V32.4H26.2C28.5218 32.4163 30.8354 32.1237 33.08 31.53C35.1161 31.0024 37.0266 30.0743 38.7 28.8C40.321 27.5206 41.6163 25.8758 42.48 24C43.4328 21.8343 43.8971 19.4854 43.84 17.12C43.8983 14.7255 43.4342 12.347 42.48 10.15V10.15ZM33.12 23.29C31.3901 24.8554 29.1104 25.6717 26.78 25.56H8.78V8.64002H26.78C29.1037 8.52511 31.3799 9.32572 33.12 10.87C33.9341 11.6873 34.5662 12.6676 34.9746 13.7465C35.3831 14.8254 35.5587 15.9785 35.49 17.13C35.5476 18.2654 35.3665 19.4003 34.9582 20.4613C34.55 21.5224 33.9238 22.486 33.12 23.29Z" stroke="#FEF8EC" stroke-miterlimit="10"/>
<path d="M90.71 28.0002C89.239 27.6583 87.745 27.4243 86.24 27.3002C87.2526 27.1379 88.2545 26.9142 89.24 26.6302C90.8577 26.1673 92.3811 25.4225 93.74 24.4302C95.0322 23.4657 96.0634 22.1939 96.74 20.7302C97.5043 18.9964 97.8732 17.1142 97.82 15.2202C97.9375 12.4645 97.2081 9.73886 95.73 7.41016C94.2809 5.32234 92.2193 3.73597 89.83 2.87016C86.9229 1.82507 83.8485 1.32339 80.76 1.39017H52.84V48.0002H61.12V30.1602H77.68C79.93 30.0985 82.1794 30.3067 84.38 30.7802C85.7202 31.0214 86.9103 31.7837 87.69 32.9002C88.3842 34.2049 88.7092 35.6744 88.63 37.1502V48.0002H97V36.7202C97 34.0802 96.47 32.0802 95.42 30.7202C94.2051 29.3041 92.5437 28.3446 90.71 28.0002V28.0002ZM61.12 23.4002V8.64017H80.78C83.66 8.64017 85.8433 9.24016 87.33 10.4402C88.0816 11.0684 88.6751 11.8645 89.0624 12.7643C89.4498 13.6641 89.6202 14.6424 89.56 15.6202C89.6079 16.6659 89.4339 17.71 89.0496 18.6838C88.6653 19.6576 88.0792 20.539 87.33 21.2702C85.8433 22.6902 83.66 23.4002 80.78 23.4002H61.12Z" stroke="#FEF8EC" stroke-miterlimit="10"/>
<path d="M133.34 48.8801C128.362 48.9802 123.426 47.9547 118.9 45.8801C114.989 44.0798 111.687 41.178 109.4 37.5301C107.09 33.6355 105.928 29.1668 106.05 24.6401C105.931 20.1043 107.092 15.6268 109.4 11.7201C111.67 8.05756 114.976 5.15144 118.9 3.37011C123.439 1.3497 128.373 0.369141 133.34 0.500115C138.335 0.36954 143.295 1.36766 147.85 3.42011C151.751 5.22005 155.04 8.1228 157.31 11.7701C159.644 15.6673 160.82 20.1489 160.7 24.6901C160.824 29.2223 159.647 33.6951 157.31 37.5801C155.02 41.211 151.737 44.1089 147.85 45.9301C143.3 48.0025 138.338 49.0114 133.34 48.8801V48.8801ZM133.34 41.5401C136.653 41.6036 139.943 40.977 143 39.7001C145.724 38.5534 148.035 36.6078 149.63 34.1201C151.327 31.2755 152.164 28.0002 152.04 24.6901C152.159 21.4027 151.322 18.1512 149.63 15.3301C148.028 12.8416 145.719 10.8882 143 9.72011C139.942 8.41736 136.643 7.77665 133.32 7.84012C129.998 7.7865 126.701 8.42682 123.64 9.72011C120.885 10.877 118.538 12.8305 116.9 15.3301C115.187 18.1434 114.338 21.3984 114.46 24.6901C114.33 28.0048 115.179 31.2844 116.9 34.1201C118.531 36.619 120.881 38.5647 123.64 39.7001C126.713 40.9729 130.015 41.5993 133.34 41.5401V41.5401Z" stroke="#FEF8EC" stroke-miterlimit="10"/>
<path d="M192.88 1.36007C197.181 1.24539 201.468 1.88159 205.55 3.24007C208.631 4.27738 211.43 6.01251 213.73 8.31007C215.738 10.3956 217.228 12.9235 218.08 15.6901C218.958 18.537 219.396 21.501 219.38 24.4801C219.394 27.5124 218.908 30.5262 217.94 33.4001C216.989 36.2154 215.428 38.7864 213.37 40.9301C211.066 43.2481 208.271 45.0184 205.19 46.1101C201.233 47.4709 197.063 48.1111 192.88 48.0001H170.06V1.36007H192.88ZM178.34 40.7501H192.74C195.749 40.8365 198.748 40.3722 201.59 39.3801C203.616 38.6806 205.447 37.5098 206.931 35.9642C208.416 34.4186 209.512 32.5424 210.13 30.4901C210.729 28.5464 211.032 26.5239 211.03 24.4901C211.035 22.4987 210.731 20.5186 210.13 18.6201C209.52 16.7246 208.496 14.9891 207.13 13.5401C205.587 11.9412 203.689 10.7284 201.59 10.0001C198.743 9.0329 195.746 8.58248 192.74 8.67007H178.34V40.7501Z" stroke="#FEF8EC" stroke-miterlimit="10"/>
<path d="M268.19 28.2901V1.36011H276.47V28.9401C276.519 31.5684 276.12 34.1858 275.29 36.6801C274.574 38.7827 273.418 40.7087 271.9 42.3301C270.413 43.889 268.658 45.1692 266.72 46.1101C264.656 47.1184 262.461 47.8353 260.2 48.2401C257.728 48.6789 255.221 48.8931 252.71 48.8801C250.143 48.892 247.58 48.6779 245.05 48.2401C242.75 47.8473 240.518 47.1301 238.42 46.1101C236.488 45.1739 234.742 43.8929 233.27 42.3301C231.774 40.7006 230.637 38.776 229.93 36.6801C229.092 34.1876 228.689 31.5693 228.74 28.9401V1.36011H237V28.2901C237 31.9401 237.69 34.7101 239.09 36.6101C240.473 38.4971 242.448 39.8666 244.7 40.5001C247.306 41.2123 249.999 41.549 252.7 41.5001C255.341 41.5439 257.975 41.2072 260.52 40.5001C262.758 39.8551 264.72 38.4873 266.1 36.6101C267.5 34.7101 268.197 31.9368 268.19 28.2901Z" stroke="#FEF8EC" stroke-miterlimit="10"/>
<path d="M337.38 31.6001C337.001 35.0036 335.682 38.2344 333.57 40.93C331.365 43.5951 328.495 45.6304 325.25 46.8301C321.371 48.2677 317.256 48.9631 313.12 48.8801C309.394 48.9186 305.684 48.3857 302.12 47.3C298.961 46.3412 296.024 44.764 293.48 42.66C291.045 40.6041 289.112 38.0181 287.83 35.1C286.437 31.8345 285.755 28.3096 285.83 24.7601C285.75 21.1907 286.432 17.6453 287.83 14.3601C289.119 11.4347 291.05 8.83708 293.48 6.76005C296.017 4.63625 298.955 3.04466 302.12 2.08005C305.684 0.994401 309.394 0.461546 313.12 0.500051C317.283 0.414663 321.423 1.124 325.32 2.59005C328.578 3.81299 331.451 5.88444 333.64 8.59005C335.743 11.3108 337.039 14.568 337.38 17.9901H329.25C328.679 15.9292 327.615 14.0382 326.15 12.4801C324.627 10.9042 322.753 9.71165 320.68 9.00005C318.247 8.17226 315.69 7.76971 313.12 7.81005C309.79 7.75443 306.488 8.41964 303.44 9.76005C300.695 10.9555 298.364 12.9349 296.74 15.4501C295.051 18.2429 294.213 21.4681 294.33 24.7301C294.209 27.9893 295.047 31.2123 296.74 34C298.367 36.5128 300.697 38.4916 303.44 39.69C306.49 41.0225 309.792 41.6841 313.12 41.6301C315.677 41.678 318.223 41.2752 320.64 40.44C322.67 39.7553 324.509 38.5989 326.006 37.0657C327.503 35.5325 328.614 33.6662 329.25 31.6201L337.38 31.6001Z" stroke="#FEF8EC" stroke-miterlimit="10"/>
<path d="M386.2 1.36011H340.98V8.49011H359.49V48.0201H367.77V8.49011H386.2V1.36011Z" stroke="#FEF8EC" stroke-miterlimit="10"/>
<path d="M432.64 1.36022C436.94 1.24717 441.228 1.88333 445.31 3.24022C448.388 4.2776 451.184 6.01282 453.48 8.31022C455.491 10.3952 456.984 12.923 457.84 15.6902C458.713 18.5382 459.151 21.5015 459.14 24.4802C459.149 27.5121 458.663 30.5252 457.7 33.4002C456.745 36.2162 455.181 38.7871 453.12 40.9302C450.836 43.2439 448.061 45.0142 445 46.1102C441.027 47.477 436.84 48.1172 432.64 48.0002H409.82V1.36022H432.64ZM418.1 40.7502H432.5C435.509 40.8366 438.508 40.3723 441.35 39.3802C443.475 38.6169 445.388 37.3589 446.93 35.7102C448.279 34.2037 449.285 32.4228 449.88 30.4902C450.479 28.5466 450.782 26.524 450.78 24.4902C450.785 22.4988 450.481 20.5187 449.88 18.6202C449.286 16.729 448.278 14.9937 446.93 13.5402C445.372 11.9405 443.461 10.728 441.35 10.0002C438.503 9.03305 435.506 8.58263 432.5 8.67022H418.1V40.7502Z" stroke="#FEF8EC" stroke-miterlimit="10"/>
<path d="M476.77 28.2201V40.8901H509.89V48.0001H468.49V1.36011H509.82V8.49011H476.77V21.3801H503.85V28.2201H476.77Z" stroke="#FEF8EC" stroke-miterlimit="10"/>
<path d="M516.73 32.4701H524.94C525.083 34.2495 525.807 35.9325 527 37.2601C528.373 38.7537 530.089 39.8899 532 40.5701C534.24 41.3954 536.613 41.7989 539 41.7601C540.98 41.819 542.954 41.5243 544.83 40.8901C546.184 40.4432 547.384 39.6214 548.29 38.5201C549.075 37.4569 549.48 36.161 549.44 34.8401C549.475 34.235 549.374 33.6297 549.143 33.0689C548.913 32.5082 548.56 32.0062 548.11 31.6001C546.888 30.6769 545.489 30.0164 544 29.6601C542.127 29.1268 539.75 28.6001 536.87 28.0801C534.533 27.6162 532.226 27.0152 529.96 26.2801C527.868 25.6162 525.866 24.6959 524 23.5401C522.34 22.5305 520.926 21.1641 519.86 19.5401C518.818 17.8292 518.293 15.8528 518.35 13.8501C518.312 11.4042 519.043 9.00797 520.44 7.00013C522.049 4.83616 524.251 3.18599 526.78 2.25013C530.078 1.00557 533.586 0.411304 537.11 0.500126C543.25 0.500126 547.943 1.90346 551.19 4.71013C554.437 7.51679 556.007 11.3468 555.9 16.2001H548C547.807 13.1735 546.68 11.0001 544.62 9.68013C542.25 8.27234 539.525 7.57792 536.77 7.68013C534.286 7.59369 531.818 8.10107 529.57 9.16013C528.656 9.58115 527.89 10.2684 527.372 11.132C526.855 11.9956 526.61 12.9952 526.67 14.0001C526.656 14.8527 526.892 15.6908 527.35 16.4101C527.949 17.2191 528.744 17.8626 529.66 18.2801C531.067 18.9522 532.538 19.4815 534.05 19.8601C535.9 20.3701 538.19 20.8601 540.93 21.4101C543.131 21.8155 545.305 22.3565 547.44 23.0301C549.329 23.6076 551.125 24.4565 552.77 25.5501C554.257 26.553 555.479 27.9015 556.33 29.4801C557.25 31.2819 557.698 33.288 557.63 35.3101C557.678 37.7909 556.981 40.2289 555.63 42.3101C554.1 44.5044 551.942 46.1846 549.44 47.1301C545.993 48.4633 542.315 49.0989 538.62 49.0001C535.66 49.0542 532.708 48.6528 529.87 47.8101C527.609 47.1198 525.472 46.0734 523.54 44.7101C521.918 43.5713 520.496 42.1725 519.33 40.5701C518.358 39.2535 517.615 37.783 517.13 36.2201C516.739 35.0113 516.602 33.7343 516.73 32.4701Z" stroke="#FEF8EC" stroke-miterlimit="10"/>
<path d="M567.49 1.36011H575.85V48.0001H567.49V1.36011Z" stroke="#FEF8EC" stroke-miterlimit="10"/>
<path d="M614.08 25.4102V31.3202H630.15C629.518 33.1818 628.495 34.8866 627.15 36.3202C625.513 38.0305 623.509 39.3469 621.29 40.1702C618.661 41.1288 615.878 41.5933 613.08 41.5402C609.61 41.6648 606.159 40.9801 603 39.5402C600.443 38.3191 598.342 36.3157 597 33.8202C595.618 31.1145 594.931 28.1076 595 25.0702C594.932 21.9217 595.712 18.8129 597.26 16.0702C598.786 13.4619 601.038 11.3532 603.74 10.0002C606.855 8.49683 610.282 7.75643 613.74 7.84024C616.373 7.78477 618.994 8.20135 621.48 9.07024C623.511 9.78752 625.346 10.9689 626.84 12.5202C628.235 14.0434 629.262 15.867 629.84 17.8502H637.61C637.405 14.5069 636.188 11.3051 634.12 8.67024C631.932 5.99841 629.095 3.93257 625.88 2.67024C622.031 1.16132 617.923 0.423997 613.79 0.500236C610.016 0.450941 606.259 1.02187 602.67 2.19024C599.497 3.2228 596.568 4.88993 594.06 7.09024C591.654 9.22876 589.748 11.8715 588.48 14.8302C587.111 18.0612 586.43 21.5417 586.48 25.0502C586.417 28.5122 587.042 31.9521 588.32 35.1702C589.489 38.048 591.314 40.6128 593.65 42.6602C596.087 44.7609 598.929 46.34 602 47.3002C605.518 48.3957 609.186 48.929 612.87 48.8802C618.87 48.8802 623.743 47.2136 627.49 43.8802C630.258 41.3508 632.232 38.071 633.17 34.4402C633.08 35.2202 632.99 36.0202 632.89 36.8602C632.65 38.8602 632.457 40.8402 632.31 42.8002C632.163 44.7602 632.087 46.4936 632.08 48.0002H639.49V25.4102H614.08Z" stroke="#FEF8EC" stroke-miterlimit="10"/>
<path d="M690.54 1.36011V36.5901L657.85 1.36011H649.57V48.0201H657.85V12.9301L690.54 48.0201H698.89V1.36011H690.54Z" stroke="#FEF8EC" stroke-miterlimit="10"/>
<path d="M718.4 28.2201V40.8901H751.52V48.0001H710.12V1.36011H751.45V8.49011H718.4V21.3801H745.47V28.2201H718.4Z" stroke="#FEF8EC" stroke-miterlimit="10"/>
<path d="M799.33 28.0001C797.855 27.6589 796.358 27.425 794.85 27.3001C795.863 27.139 796.865 26.9152 797.85 26.6301C799.469 26.1715 800.993 25.4264 802.35 24.4301C803.642 23.465 804.673 22.1934 805.35 20.7301C806.114 18.9963 806.483 17.1142 806.43 15.2201C806.543 12.4649 805.814 9.74065 804.34 7.41014C802.891 5.32231 800.829 3.73594 798.44 2.87014C795.529 1.82516 792.452 1.32351 789.36 1.39014H761.46V48.0001H769.74V30.1601H786.3C788.55 30.0985 790.799 30.3066 793 30.7801C794.339 31.0235 795.529 31.7853 796.31 32.9001C797.001 34.2058 797.322 35.6753 797.24 37.1501V48.0001H805.59V36.7201C805.59 34.0801 805.07 32.0801 804.01 30.7201C802.803 29.3099 801.153 28.3509 799.33 28.0001V28.0001ZM769.74 23.4001V8.64014H789.39C792.27 8.64014 794.457 9.24014 795.95 10.4401C796.7 11.0699 797.292 11.8663 797.679 12.7657C798.066 13.6652 798.238 14.6426 798.18 15.6201C798.232 16.662 798.065 17.7034 797.69 18.6766C797.314 19.6499 796.739 20.5335 796 21.2701C794.507 22.6901 792.32 23.4001 789.44 23.4001H769.74Z" stroke="#FEF8EC" stroke-miterlimit="10"/>
</svg>

<svg xmlns="http://www.w3.org/2000/svg" viewBox="0 0 806.96 49.46"><defs><style>.cls-1{fill:none;stroke:#231f20;stroke-miterlimit:10;}</style></defs><g id="Layer_2" data-name="Layer 2"><g id="Layer_1-2" data-name="Layer 1"><path class="cls-1" d="M42.48,10.15a13.65,13.65,0,0,0-3.78-4.9,16.5,16.5,0,0,0-5.62-2.91,23.54,23.54,0,0,0-6.88-1H.5V48H8.78V32.4H26.2a26.19,26.19,0,0,0,6.88-.87A15.83,15.83,0,0,0,38.7,28.8,13.09,13.09,0,0,0,42.48,24a16.12,16.12,0,0,0,1.36-6.88A16.49,16.49,0,0,0,42.48,10.15ZM33.12,23.29a8.82,8.82,0,0,1-6.34,2.27h-18V8.64h18a8.89,8.89,0,0,1,6.34,2.23,8.18,8.18,0,0,1,2.37,6.26A8.13,8.13,0,0,1,33.12,23.29Z"/><path class="cls-1" d="M90.71,28a31,31,0,0,0-4.47-.7,25.26,25.26,0,0,0,3-.67,14.3,14.3,0,0,0,4.5-2.2,9.69,9.69,0,0,0,3-3.7,12.77,12.77,0,0,0,1.08-5.51,13.5,13.5,0,0,0-2.09-7.81,12.27,12.27,0,0,0-5.9-4.54,25.2,25.2,0,0,0-9.07-1.48H52.84V48h8.28V30.16H77.68a28.18,28.18,0,0,1,6.7.62,5.15,5.15,0,0,1,3.31,2.12,8.12,8.12,0,0,1,.94,4.25V48H97V36.72c0-2.64-.53-4.64-1.58-6A8.2,8.2,0,0,0,90.71,28ZM61.12,23.4V8.64H80.78q4.32,0,6.55,1.8a6.25,6.25,0,0,1,2.23,5.18,7.42,7.42,0,0,1-2.23,5.65Q85.1,23.4,80.78,23.4Z"/><path class="cls-1" d="M133.34,48.88a33.06,33.06,0,0,1-14.44-3,22.14,22.14,0,0,1-9.5-8.35,24,24,0,0,1-3.35-12.89,24.16,24.16,0,0,1,3.35-12.92,21.76,21.76,0,0,1,9.5-8.35A33.35,33.35,0,0,1,133.34.5a33.21,33.21,0,0,1,14.51,2.92,22,22,0,0,1,9.46,8.35,23.91,23.91,0,0,1,3.39,12.92,23.75,23.75,0,0,1-3.39,12.89,22.44,22.44,0,0,1-9.46,8.35A32.92,32.92,0,0,1,133.34,48.88Zm0-7.34A23.88,23.88,0,0,0,143,39.7a14.61,14.61,0,0,0,6.63-5.58,17.15,17.15,0,0,0,2.41-9.43,17,17,0,0,0-2.41-9.36A14.86,14.86,0,0,0,143,9.72a23.55,23.55,0,0,0-9.68-1.88,23.88,23.88,0,0,0-9.68,1.88,15,15,0,0,0-6.74,5.61,16.8,16.8,0,0,0-2.44,9.36,16.9,16.9,0,0,0,2.44,9.43,14.75,14.75,0,0,0,6.74,5.58A24.22,24.22,0,0,0,133.34,41.54Z"/><path class="cls-1" d="M192.88,1.36a37,37,0,0,1,12.67,1.88,21.1,21.1,0,0,1,8.18,5.07,18.49,18.49,0,0,1,4.35,7.38,29.31,29.31,0,0,1,1.3,8.79,27.56,27.56,0,0,1-1.44,8.92,20.22,20.22,0,0,1-4.57,7.53,21.8,21.8,0,0,1-8.18,5.18A35,35,0,0,1,192.88,48H170.06V1.36ZM178.34,40.75h14.4a24.7,24.7,0,0,0,8.85-1.37,13.53,13.53,0,0,0,8.54-8.89,20.31,20.31,0,0,0,.9-6,19.3,19.3,0,0,0-.9-5.87,13.38,13.38,0,0,0-3-5.08A14.14,14.14,0,0,0,201.59,10a25.23,25.23,0,0,0-8.85-1.33h-14.4Z"/><path class="cls-1" d="M268.19,28.29V1.36h8.28V28.94a23.15,23.15,0,0,1-1.18,7.74,15.65,15.65,0,0,1-3.39,5.65,18.06,18.06,0,0,1-5.18,3.78,24.82,24.82,0,0,1-6.52,2.13,41.63,41.63,0,0,1-7.49.64,43.73,43.73,0,0,1-7.66-.64,24.66,24.66,0,0,1-6.63-2.13,17.65,17.65,0,0,1-5.15-3.78,15.84,15.84,0,0,1-3.34-5.65,22.89,22.89,0,0,1-1.19-7.74V1.36H237V28.29c0,3.65.69,6.42,2.09,8.32a10.47,10.47,0,0,0,5.61,3.89,28.39,28.39,0,0,0,8,1,27.51,27.51,0,0,0,7.82-1,10.55,10.55,0,0,0,5.58-3.89Q268.2,33.76,268.19,28.29Z"/><path class="cls-1" d="M337.38,31.6a18.43,18.43,0,0,1-3.81,9.33,19.64,19.64,0,0,1-8.32,5.9,33,33,0,0,1-12.13,2.05,36.46,36.46,0,0,1-11-1.58,24.91,24.91,0,0,1-8.64-4.64,20.89,20.89,0,0,1-5.65-7.56,25,25,0,0,1-2-10.34,25.13,25.13,0,0,1,2-10.4,21.29,21.29,0,0,1,5.65-7.6,24.66,24.66,0,0,1,8.64-4.68,36.46,36.46,0,0,1,11-1.58,32.74,32.74,0,0,1,12.2,2.09,19.53,19.53,0,0,1,8.32,6,18.34,18.34,0,0,1,3.74,9.4h-8.13a13.19,13.19,0,0,0-3.1-5.51A13.87,13.87,0,0,0,320.68,9a22.38,22.38,0,0,0-7.56-1.19,23.09,23.09,0,0,0-9.68,1.95,15.2,15.2,0,0,0-6.7,5.69,16.77,16.77,0,0,0-2.41,9.28A16.67,16.67,0,0,0,296.74,34a15.26,15.26,0,0,0,6.7,5.69,23.24,23.24,0,0,0,9.68,1.94,21.78,21.78,0,0,0,7.52-1.19,13.55,13.55,0,0,0,8.61-8.82Z"/><polygon class="cls-1" points="386.2 1.36 340.98 1.36 340.98 8.49 359.49 8.49 359.49 48.02 367.77 48.02 367.77 8.49 386.2 8.49 386.2 1.36"/><path class="cls-1" d="M432.64,1.36a37.08,37.08,0,0,1,12.67,1.88,21.06,21.06,0,0,1,8.17,5.07,18.51,18.51,0,0,1,4.36,7.38,29.63,29.63,0,0,1,1.3,8.79,27.83,27.83,0,0,1-1.44,8.92,20.24,20.24,0,0,1-4.58,7.53A21.68,21.68,0,0,1,445,46.11,35,35,0,0,1,432.64,48H409.82V1.36ZM418.1,40.75h14.4a24.7,24.7,0,0,0,8.85-1.37,14.23,14.23,0,0,0,5.58-3.67,14,14,0,0,0,2.95-5.22,20.31,20.31,0,0,0,.9-6,19.3,19.3,0,0,0-.9-5.87,13.36,13.36,0,0,0-2.95-5.08A14.29,14.29,0,0,0,441.35,10a25.23,25.23,0,0,0-8.85-1.33H418.1Z"/><path class="cls-1" d="M476.77,28.22V40.89h33.12V48h-41.4V1.36h41.33V8.49H476.77V21.38h27.08v6.84Z"/><path class="cls-1" d="M516.73,32.47h8.21A8.14,8.14,0,0,0,527,37.26,12.47,12.47,0,0,0,532,40.57a19.34,19.34,0,0,0,7,1.19,16.66,16.66,0,0,0,5.83-.87,7.54,7.54,0,0,0,3.46-2.37,5.9,5.9,0,0,0,1.15-3.68,4.05,4.05,0,0,0-1.33-3.24A11.1,11.1,0,0,0,544,29.66q-2.81-.8-7.13-1.58a60.71,60.71,0,0,1-6.91-1.8A26.6,26.6,0,0,1,524,23.54a13.09,13.09,0,0,1-4.14-4,10.37,10.37,0,0,1-1.51-5.69A11.67,11.67,0,0,1,520.44,7a13.92,13.92,0,0,1,6.34-4.75A27.31,27.31,0,0,1,537.11.5q9.21,0,14.08,4.21T555.9,16.2H548q-.29-4.54-3.38-6.52a14.33,14.33,0,0,0-7.85-2,15.62,15.62,0,0,0-7.2,1.48A5,5,0,0,0,526.67,14a4.35,4.35,0,0,0,.68,2.41,5.94,5.94,0,0,0,2.31,1.87,23.33,23.33,0,0,0,4.39,1.58c1.85.51,4.14,1,6.88,1.55a54.32,54.32,0,0,1,6.51,1.62,20.4,20.4,0,0,1,5.33,2.52,11.09,11.09,0,0,1,3.56,3.93,11.94,11.94,0,0,1,1.3,5.83,12.42,12.42,0,0,1-2,7,13.26,13.26,0,0,1-6.19,4.82A27.93,27.93,0,0,1,538.62,49a28.89,28.89,0,0,1-8.75-1.19,22.24,22.24,0,0,1-6.33-3.1,18,18,0,0,1-4.21-4.14,14.62,14.62,0,0,1-2.2-4.35A9.18,9.18,0,0,1,516.73,32.47Z"/><path class="cls-1" d="M567.49,1.36h8.36V48h-8.36Z"/><path class="cls-1" d="M614.08,25.41v5.91h16.07a13.78,13.78,0,0,1-3,5,15.64,15.64,0,0,1-5.86,3.85,22.71,22.71,0,0,1-8.21,1.37,22.37,22.37,0,0,1-10.08-2,13.34,13.34,0,0,1-6-5.72,18.32,18.32,0,0,1-2-8.75,17.54,17.54,0,0,1,2.26-9A15.6,15.6,0,0,1,603.74,10a21.79,21.79,0,0,1,10-2.16,22.05,22.05,0,0,1,7.74,1.23,13.84,13.84,0,0,1,5.36,3.45,13.47,13.47,0,0,1,3,5.33h7.77a16.5,16.5,0,0,0-3.49-9.18,20.19,20.19,0,0,0-8.24-6A31.53,31.53,0,0,0,613.79.5a34.47,34.47,0,0,0-11.12,1.69,24.6,24.6,0,0,0-8.61,4.9,21.9,21.9,0,0,0-5.58,7.74,25.28,25.28,0,0,0-2,10.22,26.13,26.13,0,0,0,1.84,10.12,19.94,19.94,0,0,0,5.33,7.49A23.56,23.56,0,0,0,602,47.3a35,35,0,0,0,10.87,1.58q9,0,14.62-5a19.34,19.34,0,0,0,5.68-9.44c-.09.78-.18,1.58-.28,2.42q-.36,3-.58,5.94T632.08,48h7.41V25.41Z"/><polygon class="cls-1" points="690.54 1.36 690.54 36.59 657.85 1.36 649.57 1.36 649.57 48.02 657.85 48.02 657.85 12.93 690.54 48.02 698.89 48.02 698.89 1.36 690.54 1.36"/><path class="cls-1" d="M718.4,28.22V40.89h33.12V48h-41.4V1.36h41.33V8.49H718.4V21.38h27.07v6.84Z"/><path class="cls-1" d="M799.33,28a31.33,31.33,0,0,0-4.48-.7,24.82,24.82,0,0,0,3-.67,14.09,14.09,0,0,0,4.5-2.2,9.71,9.71,0,0,0,3-3.7,12.77,12.77,0,0,0,1.08-5.51,13.57,13.57,0,0,0-2.09-7.81,12.27,12.27,0,0,0-5.9-4.54,25.26,25.26,0,0,0-9.08-1.48H761.46V48h8.28V30.16H786.3a28.18,28.18,0,0,1,6.7.62,5.17,5.17,0,0,1,3.31,2.12,8.12,8.12,0,0,1,.93,4.25V48h8.35V36.72c0-2.64-.52-4.64-1.58-6A8.2,8.2,0,0,0,799.33,28ZM769.74,23.4V8.64h19.65q4.32,0,6.56,1.8a6.28,6.28,0,0,1,2.23,5.18A7.45,7.45,0,0,1,796,21.27q-2.24,2.13-6.56,2.13Z"/></g></g></svg>
